X:1
T:Title
%%score { ( 1 3 ) | 2 }
L:1/8
M:4/4
K:Bb
V:1 treble nm="Grand Piano"
V:3 treble 
V:2 bass 
V:1
 z4 z2[Q:1/4=100] [B,D]>[CE] | [DF]2 [DB]2 [DB]2 [DB]2 | [EB]2 [EA]4 A>B | c2 c2 c2 c2 | %4
 [Ec]2 [DB]4 [DB]>[Ec] | [Fd]2 [Fd]2 [Fd]2 [Ff]2 | [Ff]2 [Fe]2 [Fd]2 [FB]2 | %7
 [=Ec]3 [GB] [FA]2 [EG]2 | F4- FEDE | [DF]2 [DB]2 [DB]2 [DB]2 | [EB]2 [EA]4 A>B | c2 c2 c2 c2 | %12
 [Ec]2 [DB]4 [DB]>[Ec] | [Fd]2 [Fd]2 [Fd]2 [_Af]2 | [Gf]2 [Ge]2 [GB]2 [^Fc]2 | d3 d d2 c2 | %16
[M:3/4] [DB]6 |[M:1/4] d>B |[M:4/4] F6 z2 | D6 z2 | B,CDE F2 [DFB]2 |[M:3/4] A6 |[M:1/4] e>c | %23
[M:4/4] A6 z2 | z2 E>E E2 G[FA] | [FB][FA][FB][^Fc] [=Fd]2 [Ec]2 |[M:3/4] [DB]6 |] %27
V:2
 z4 z2 [B,,F,]>[B,,F,] | [B,,B,]2 [B,,F,]2 [B,,F,]2 [B,,F,]2 | [C,F,]2 [C,F,]4 [F,C]>[F,D] | %3
 [F,A,E]2 [F,A,E]2 [F,A,E]2 [F,E]2 | [B,,F,]6 [B,,F,]>[B,,F,] | %5
 [B,,B,]2 [B,,B,]2 [B,,B,]2 [B,,D]2 | [B,,D]2 [C,C]2 [D,B,]2 [D,B,]2 | %7
 [C,G,]3 [C,C] [C,C]2 [C,B,]2 | [F,A,C]6 [F,B,][F,C] | [B,,B,]2 [B,,F,]2 [B,,F,]2 [B,,F,]2 | %10
 [C,F,]2 [C,F,]4 [F,C]>[F,D] | [F,A,E]2 [F,A,E]2 [F,A,E]2 [F,E]2 | [B,,F,]6 [B,,F,]>[B,,F,] | %13
 [B,,B,]2 [B,,B,]2 [B,,B,]2 [D,B,]2 | [E,B,]2 [E,B,]2 [E,B,]2 [E,B,]2 | %15
 [F,B,F]3 [F,B,F] [F,B,F]2 [F,A,E]2 |[M:3/4] [B,,F,]6 |[M:1/4] z2 | %18
[M:4/4] z2 [B,,B,]>[B,,B,] [B,,B,]2 z2 | z2 [B,,F,]>[B,,F,] [B,,F,]2 F,D, | B,,C,D,E, F,2 B,,2 | %21
[M:3/4] [F,CF]2 [F,C]2 [F,C]2 |[M:1/4] z2 |[M:4/4] z2 [F,C]>[F,C] [F,C]2 z2 | %24
 z2 [F,A,]>[F,A,] [F,A,]2 [F,CE][E,C] | [D,B,][C,C][D,B,][E,B,] [F,B,]2 [F,A,]2 | %26
[M:3/4] [B,,F,B,]6 |] %27
V:3
 x8 | x8 | x8 | x8 | x8 | x8 | x8 | x8 | x8 | x8 | x8 | x8 | x8 | x8 | x8 | x8 |[M:3/4] x6 | %17
[M:1/4] x2 |[M:4/4] z2 D>D D2 B>F | z2 B,>B, B,2 FD | x8 |[M:3/4] z2 F2 F2 |[M:1/4] x2 | %23
[M:4/4] z2 F>F F2 c>A | F6 z2 | x8 |[M:3/4] x6 |] %27

